markup/src/img/icon-01.svg

<svg width="34" height="30" viewBox="0 0 34 30" fill="none" xmlns="http://www.w3.org/2000/svg">
<path d="M26.9247 5.63393L29.2719 3.27693M28.333 8.9338L31.5394 8.07107M23.6385 4.21973L24.4977 1M19.5892 17H31.0083C32.1083 17 33 16.1046 33 15C33 13.8954 32.1083 13 31.0083 13H20.2769C18.9673 13 18.0141 11.7526 18.353 10.4824L19.3158 6.8742C19.6005 5.80727 18.97 4.7106 17.9075 4.42473C16.845 4.13887 15.7529 4.772 15.4682 5.83893L15.0077 7.56473C14.1521 10.7707 11.2589 13 7.95356 13H5.6473V26.3333H8.96681L9.76349 27.4C10.5158 28.4072 11.6964 29 12.9502 29H20.917C22.017 29 22.9087 28.1046 22.9087 27C22.9087 25.8954 22.017 25 20.917 25H19.5892H22.2448C23.3448 25 24.2365 24.1046 24.2365 23C24.2365 21.8954 23.3448 21 22.2448 21H19.5892H23.5726C24.6726 21 25.5643 20.1046 25.5643 19C25.5643 17.8954 24.6726 17 23.5726 17H19.5892ZM1 11H5.6473V28.3333H1V11Z" stroke="#40AC6C" stroke-width="1.5" stroke-miterlimit="10" stroke-linecap="round" stroke-linejoin="round"/>
</svg>

<svg width="34" height="30" fill="none" xmlns="http://www.w3.org/2000/svg"><path d="M26.925 5.634l2.347-2.357m-.939 5.657l3.206-.863m-7.9-3.851L24.498 1m-4.909 16h11.42c1.1 0 1.991-.895 1.991-2s-.892-2-1.992-2H20.277a1.998 1.998 0 0 1-1.924-2.518l.963-3.608a2 2 0 0 0-1.409-2.45 1.99 1.99 0 0 0-2.439 1.415l-.46 1.726A7.308 7.308 0 0 1 7.954 13H5.647v13.333h3.32l.796 1.067A3.978 3.978 0 0 0 12.95 29h7.967c1.1 0 1.992-.895 1.992-2s-.892-2-1.992-2h-1.328 2.656c1.1 0 1.991-.895 1.991-2s-.891-2-1.991-2h-2.656 3.984c1.1 0 1.991-.895 1.991-2s-.891-2-1.991-2h-3.984zM1 11h4.647v17.333H1V11z" stroke="#40AC6C" stroke-width="1.5" stroke-miterlimit="10" stroke-linecap="round" stroke-linejoin="round"/></svg>
